src/images/std-icons/std-star.svg

<svg xmlns="http://www.w3.org/2000/svg" width="512" height="512" viewBox="0 0 512 512">
  <title>star</title>
  <path fill="#000" fill-rule="nonzero" d="M446.6528,188.562987 L326.007467,178.093867 L278.896,67.16992 C274.973859,57.9854606 265.950279,52.0269683 255.963413,52.0269683 C245.976548,52.0269683 236.952967,57.9854606 233.030827,67.16992 L185.92,178.34304 L65.5240533,188.562987 C55.5373312,189.386478 47.0198673,196.121977 43.9165249,205.649937 C40.8131825,215.177897 43.73,225.637644 51.3160533,232.184747 L142.79616,311.451733 L115.376853,429.105067 C113.088542,438.861324 116.879688,449.037825 124.993512,454.918879 C133.107335,460.799933 143.958304,461.236317 152.518187,456.025813 L255.96352,393.709013 L359.408853,456.2752 C367.968772,461.485757 378.819814,461.049366 386.933663,455.168247 C395.047512,449.287127 398.838612,439.110531 396.550187,429.35424 L369.130667,311.451733 L460.611627,232.18496 C468.233808,225.694634 471.210153,215.260272 468.159055,205.725452 C465.107958,196.190632 456.626921,189.422578 446.6528,188.562987 Z"/>
</svg>

<svg xmlns="http://www.w3.org/2000/svg" viewBox="0 0 512 512">
  <title>
    star
  </title>
  <path d="M446.65 188.56L326.01 178.1 278.9 67.17a24.94 24.94 0 0 0-45.87 0l-47.11 111.17-120.4 10.22a24.87 24.87 0 0 0-14.2 43.62l91.48 79.27-27.42 117.66a24.87 24.87 0 0 0 37.14 26.92l103.44-62.32 103.45 62.57a24.87 24.87 0 0 0 37.14-26.93l-27.42-117.9 91.48-79.27a24.82 24.82 0 0 0-13.96-43.62z"/>
</svg>
